!!!OTL: 71. Siegeslied der Deutschen nach der Schlacht bei Leipzig (1813).
!!!COM: B. Ans. Weber
!!!ODT: 1813
!!!ARE: Europa, Mitteleuropa, Deutschland
!!!SCT: B0071
!!!TXL: @@DE
!!!YEM: Copyright 1995, estate of Helmut Schaffrath.
**kern	**text
*ICvox	*
*Ivox	*
*M4/4	*
*met(c)	*
*clefG2	*
*k[b-e-]	*
*B-:	*
!LO:TX:a:t=Friſch.	!
{4f	Tri-
=1	=1
4.b-	-umph!
8a	das
4b-	Schwert
4cc	in
=2	=2
4.dd	tapf-
8cc	-rer
4b-}	Hand
{4b-	hat
=3	=3
4.cc	ho-
8ee-	-he
4dd	That
4cc	voll-
=4	=4
4b-	-bracht!
4r	.
4r}	.
{4f	Tri-
=5	=5
4.b-	-umph!
8a	Thu-
4b-	-is-
4cc	-kons
=6	=6
4.dd	Volk
8cc	be-
4b-}	-ſtand
{4b-	mit
=7	=7
4.cc	Kraft
8ee-	die
4dd	Ra-
4cc	-che-
=8	=8
4b-	-ſchlacht!
4r	.
4r}	.
{4dd	Sein
=9	=9
4cc	Ruhm,
4a	der
4cc	Rom
4cc	einſt
=10	=10
4dd	ü-
8b-L	-ber-
8ccJ	.
4dd}	-wand,
{4dd	iſt
=11	=11
4.ee-	ſieg-
8ee-	-reich
4ee-	nun
4dd	er-
=12	=12
(2dd	-wacht:
4cc)	.
8r}	.
{8f	ge-
=13	=13
4.b-	-ret-
8b-	-et
4b-	iſt
4b-	das
=14	=14
4.dd	Va-
8dd	-ter-
4dd}	-land,
{8ddL	ʒer-
8ee-J	.
=15	=15
4.ff	-ſtört
8ee-	Ty-
4dd	-ran-
4cc	-nen-
=16	=16
4b-	-macht.
4r	.
4r}	.
==	==
!!!AGN: Kriegs -, Sieges -, Soldaten - Lied
!!!GTL: Kriegs- und Siegeslieder
!!!ONB: ESAC (Essen Associative Code) Database: BOEHME
!!!AMT: simple quadruple
!!!AIN: vox
!!!EED: Helmut Schaffrath
!!!EEV: 1.0
!!@@COMMENT:"Text von K. Alex. Herklots, Theaterdichter in Berlin."
!!@@END:
!!Text: K. Alex. Herklots
!!!URL-scan: https://archive.org/details/BoehmeVtLieder1895/page/n83/mode/2up
!!!ENC: Anna Maria Matuszewska
!!!EEV: 2024/14/06
*-	*-
